build/img/svg/tw.svg

<svg width="40" height="40" viewBox="0 0 40 40" fill="none" xmlns="http://www.w3.org/2000/svg"><rect width="40" height="40" rx="20" fill="#55ACEE"/><mask id="a" maskUnits="userSpaceOnUse" x="10" y="11" width="21" height="17"><path d="M30.92 13c-.77.35-1.6.58-2.46.69.88-.53 1.56-1.37 1.88-2.38-.83.5-1.75.85-2.72 1.05-.79-.86-1.9-1.36-3.16-1.36-2.35 0-4.27 1.92-4.27 4.29 0 .34.04.67.11.98-3.56-.18-6.73-1.89-8.84-4.48-.37.63-.58 1.37-.58 2.15 0 1.49.75 2.81 1.91 3.56-.71 0-1.37-.2-1.95-.5v.03c0 2.08 1.48 3.82 3.44 4.21a4.22 4.22 0 0 1-1.93.07 4.28 4.28 0 0 0 4 2.98 8.521 8.521 0 0 1-5.33 1.84c-.34 0-.68-.02-1.02-.06 1.9 1.22 4.16 1.93 6.58 1.93 7.88 0 12.21-6.54 12.21-12.21 0-.19 0-.37-.01-.56.84-.6 1.56-1.36 2.14-2.23z" fill="#979797"/></mask><g mask="url(#a)"><path d="M0 20C0 8.954 8.954 0 20 0s20 8.954 20 20-8.954 20-20 20S0 31.046 0 20z" fill="#fff"/></g></svg>

<svg width="40" height="40" viewBox="0 0 40 40" fill="none" xmlns="http://www.w3.org/2000/svg">
<rect width="40" height="40" rx="20" fill="#55ACEE"/>
<mask id="mask0" mask-type="alpha" maskUnits="userSpaceOnUse" x="10" y="11" width="21" height="17">
<path d="M30.92 13C30.15 13.35 29.32 13.58 28.46 13.69C29.34 13.16 30.02 12.32 30.34 11.31C29.51 11.81 28.59 12.16 27.62 12.36C26.83 11.5 25.72 11 24.46 11C22.11 11 20.19 12.92 20.19 15.29C20.19 15.63 20.23 15.96 20.3 16.27C16.74 16.09 13.57 14.38 11.46 11.79C11.09 12.42 10.88 13.16 10.88 13.94C10.88 15.43 11.63 16.75 12.79 17.5C12.08 17.5 11.42 17.3 10.84 17C10.84 17 10.84 17 10.84 17.03C10.84 19.11 12.32 20.85 14.28 21.24C13.92 21.34 13.54 21.39 13.15 21.39C12.88 21.39 12.61 21.36 12.35 21.31C12.89 23 14.46 24.26 16.35 24.29C14.89 25.45 13.04 26.13 11.02 26.13C10.68 26.13 10.34 26.11 10 26.07C11.9 27.29 14.16 28 16.58 28C24.46 28 28.79 21.46 28.79 15.79C28.79 15.6 28.79 15.42 28.78 15.23C29.62 14.63 30.34 13.87 30.92 13Z" fill="#979797"/>
</mask>
<g mask="url(#mask0)">
<path d="M0 20C0 8.95431 8.95431 0 20 0C31.0457 0 40 8.95431 40 20C40 31.0457 31.0457 40 20 40C8.95431 40 0 31.0457 0 20Z" fill="white"/>
</g>
</svg>
